X:1
T:7
L:1/8
M:6/8
K:Dmin
V:1 treble nm="Piano" snm="Pno."
V:1
 F2 G A A2 | ADA G z (3G/A/G/ | F3- F3 | D2 F/G/ A A2 | ADA G2 F/G/ | D3- D3 | A3- A/c/A/G/F/G/ | %7
 A3- A3 | D/G/ G2- G/A/F/G/A/G/ | G3- G3 | FFG A2 c/c/ | D2 A G2 F/D/ | F3- F2 G | A2 c F2 G | %14
 A,DF G z (3F/G/F/ | D3- D3 | %16

